;FLAVOR:Marlin
;TIME:13369
;Filament used: 10.3346m
;Layer height: 0.2
;MINX:43.395
;MINY:56.763
;MINZ:0.2
;MAXX:175.395
;MAXY:188.763
;MAXZ:3.4
;TARGET_MACHINE.NAME:Creality Ender-3 v2 Neo
;Generated with Cura_SteamEngine 5.7.1
M140 S65
M105
M190 S65
M104 S210
M105
M109 S210
M82 ;absolute extrusion mode
G92 E0 ;Reset Extruder
G28 ;Home
G1 Z2.0 F3000 ;Move Z Axis up
G1 X5.1 Y20 Z0.28 F5000.0 ;Move to start position
G1 X5.1 Y200.0 Z0.28 F1500.0 E15 ;Draw the first line
G1 X5.4 Y200.0 Z0.28 F5000.0 ;Move to side a little
G1 X5.4 Y20 Z0.28 F1500.0 E30 ;Draw the second line
G92 E0 ;Reset Extruder
G1 Z2.0 F3000 ;Move Z Axis up
G92 E0
G92 E0
G1 F1500 E-4
;LAYER_COUNT:17
;LAYER:0
M107
G0 F6000 X47.587 Y59.139 Z0.2
;TYPE:SKIRT
G1 F1500 E0
G1 F1200 X48.319 Y58.609 E0.03006
G1 X49.216 Y58.074 E0.0648
G1 X50.094 Y57.653 E0.09718
G1 X51.007 Y57.311 E0.12961
G1 X51.944 Y57.052 E0.16194
G1 X52.911 Y56.874 E0.19465
G1 X54.05 Y56.778 E0.23266
G1 X54.707 Y56.763 E0.25452
G1 X163.699 Y56.763 E3.87961
G1 X164.579 Y56.776 E3.90888
G1 X165.551 Y56.835 E3.94127
G1 X166.514 Y56.981 E3.97367
G1 X167.461 Y57.212 E4.00609
G1 X168.349 Y57.512 E4.03726
G1 X169.241 Y57.902 E4.06964
G1 X170.124 Y58.389 E4.10318
G1 X170.875 Y58.891 E4.13322
G1 X171.69 Y59.549 E4.16806
G1 X172.388 Y60.227 E4.20043
G1 X173.024 Y60.964 E4.23281
G1 X173.594 Y61.754 E4.26521
G1 X174.056 Y62.53 E4.29525
G1 X174.51 Y63.472 E4.33003
G1 X174.839 Y64.35 E4.36121
G1 X175.108 Y65.322 E4.39475
G1 X175.285 Y66.288 E4.42742
G1 X175.38 Y67.418 E4.46514
G1 X175.395 Y68.093 E4.48759
G1 X175.394 Y177.163 E8.11527
G1 X175.383 Y177.926 E8.14065
G1 X175.326 Y178.899 E8.17307
G1 X175.181 Y179.862 E8.20546
G1 X174.952 Y180.808 E8.23784
G1 X174.641 Y181.732 E8.27026
G1 X174.249 Y182.623 E8.30264
G1 X173.781 Y183.475 E8.33497
G1 X173.259 Y184.256 E8.36621
G1 X172.626 Y185.041 E8.39975
G1 X172.001 Y185.692 E8.42977
G1 X171.212 Y186.38 E8.46459
G1 X170.452 Y186.93 E8.49579
G1 X169.585 Y187.447 E8.52936
G1 X168.707 Y187.869 E8.56176
G1 X167.796 Y188.211 E8.59413
G1 X166.857 Y188.472 E8.62654
G1 X165.891 Y188.65 E8.65921
G1 X164.74 Y188.748 E8.69764
G1 X164.065 Y188.763 E8.72009
G1 X54.959 Y188.762 E12.34897
G1 X54.226 Y188.751 E12.37335
G1 X53.254 Y188.694 E12.40574
G1 X52.291 Y188.548 E12.43813
G1 X51.345 Y188.319 E12.47051
G1 X50.421 Y188.007 E12.50294
G1 X49.531 Y187.615 E12.53529
G1 X48.708 Y187.164 E12.5665
G1 X47.869 Y186.603 E12.60007
G1 X47.165 Y186.037 E12.63012
G1 X46.412 Y185.312 E12.66488
G1 X45.775 Y184.576 E12.69726
G1 X45.245 Y183.845 E12.72729
G1 X44.709 Y182.948 E12.76204
G1 X44.287 Y182.07 E12.79444
G1 X43.945 Y181.158 E12.82684
G1 X43.685 Y180.22 E12.85921
G1 X43.507 Y179.251 E12.89198
G1 X43.409 Y178.072 E12.93133
G1 X43.395 Y177.421 E12.95299
G1 X43.396 Y68.288 E16.58277
G1 X43.407 Y67.588 E16.60605
G1 X43.465 Y66.615 E16.63847
G1 X43.611 Y65.652 E16.67087
G1 X43.841 Y64.706 E16.70325
G1 X44.154 Y63.783 E16.73566
G1 X44.546 Y62.893 E16.76801
G1 X45.016 Y62.04 E16.8004
G1 X45.559 Y61.232 E16.83278
G1 X46.126 Y60.528 E16.86285
G1 X46.851 Y59.776 E16.89759
G1 X47.587 Y59.139 E16.92996
G0 F6000 X47.822 Y59.463
G1 F1200 X48.554 Y58.933 E16.96002
G1 X49.39 Y58.434 E16.9924
G1 X50.235 Y58.027 E17.0236
G1 X51.114 Y57.696 E17.05484
G1 X52.017 Y57.445 E17.08601
G1 X52.945 Y57.273 E17.1174
G1 X54.084 Y57.177 E17.15542
G1 X54.716 Y57.163 E17.17645
G1 X163.693 Y57.163 E20.80104
G1 X164.555 Y57.175 E20.82971
G1 X165.492 Y57.231 E20.86093
G1 X166.42 Y57.37 E20.89214
G1 X167.333 Y57.591 E20.92338
G1 X168.189 Y57.879 E20.95342
G1 X169.081 Y58.269 E20.9858
G1 X169.902 Y58.722 E21.01699
G1 X170.653 Y59.224 E21.04703
G1 X171.412 Y59.836 E21.07946
G1 X172.086 Y60.489 E21.11067
G1 X172.7 Y61.198 E21.14187
G1 X173.25 Y61.959 E21.1731
G1 X173.712 Y62.735 E21.20314
G1 X174.135 Y63.612 E21.23552
G1 X174.464 Y64.49 E21.26671
G1 X174.715 Y65.395 E21.29794
G1 X174.886 Y66.322 E21.3293
G1 X174.981 Y67.452 E21.36701
G1 X174.995 Y68.093 E21.38834
G1 X174.994 Y177.158 E25.01585
G1 X174.984 Y177.903 E25.04064
G1 X174.93 Y178.84 E25.07185
G1 X174.792 Y179.769 E25.10309
G1 X174.573 Y180.681 E25.13428
G1 X174.275 Y181.571 E25.1655
G1 X173.898 Y182.431 E25.19673
G1 X173.448 Y183.253 E25.2279
G1 X172.926 Y184.034 E25.25915
G1 X172.337 Y184.764 E25.29034
G1 X171.712 Y185.415 E25.32036
G1 X170.977 Y186.056 E25.3528
G1 X170.217 Y186.606 E25.384
G1 X169.411 Y187.087 E25.41522
G1 X168.566 Y187.495 E25.44643
G1 X167.688 Y187.826 E25.47764
G1 X166.784 Y188.079 E25.50886
G1 X165.857 Y188.251 E25.54022
G1 X164.706 Y188.349 E25.57864
G1 X164.065 Y188.363 E25.59996
G1 X54.965 Y188.362 E29.22864
G1 X54.249 Y188.352 E29.25246
G1 X53.313 Y188.298 E29.28364
G1 X52.384 Y188.159 E29.31488
G1 X51.472 Y187.94 E29.34608
G1 X50.582 Y187.641 E29.37731
G1 X49.723 Y187.264 E29.40851
G1 X48.9 Y186.813 E29.43972
G1 X48.12 Y186.291 E29.47094
G1 X47.416 Y185.725 E29.50098
G1 X46.714 Y185.05 E29.53337
G1 X46.099 Y184.341 E29.56459
G1 X45.569 Y183.61 E29.59462
G1 X45.069 Y182.774 E29.62702
G1 X44.661 Y181.929 E29.65823
G1 X44.33 Y181.051 E29.68944
G1 X44.078 Y180.147 E29.72065
G1 X43.906 Y179.218 E29.75208
G1 X43.808 Y178.039 E29.79143
G1 X43.795 Y177.421 E29.81199
G1 X43.796 Y68.294 E33.44156
G1 X43.806 Y67.611 E33.46428
G1 X43.861 Y66.674 E33.4955
G1 X44 Y65.746 E33.52671
G1 X44.22 Y64.834 E33.55791
G1 X44.52 Y63.944 E33.58915
G1 X44.897 Y63.085 E33.62035
G1 X45.348 Y62.263 E33.65154
G1 X45.871 Y61.483 E33.68277
G1 X46.438 Y60.779 E33.71284
G1 X47.113 Y60.078 E33.74521
G1 X47.822 Y59.463 E33.77642
G0 F6000 X48.057 Y59.787
G1 F1200 X48.789 Y59.257 E33.80648
G1 X49.564 Y58.794 E33.83651
G1 X50.377 Y58.401 E33.86654
G1 X51.222 Y58.081 E33.89659
G1 X52.091 Y57.838 E33.9266
G1 X52.979 Y57.672 E33.95665
G1 X54.118 Y57.576 E33.99467
G1 X54.725 Y57.563 E34.01486
G1 X163.688 Y57.563 E37.63899
G1 X164.532 Y57.574 E37.66706
G1 X165.434 Y57.627 E37.69711
G1 X166.327 Y57.759 E37.72714
G1 X167.205 Y57.97 E37.75717
G1 X168.061 Y58.258 E37.78721
G1 X168.888 Y58.62 E37.81724
G1 X169.68 Y59.055 E37.84729
G1 X170.431 Y59.557 E37.87733
G1 X171.134 Y60.124 E37.90737
G1 X171.784 Y60.751 E37.93741
G1 X172.376 Y61.433 E37.96745
G1 X172.906 Y62.164 E37.99748
G1 X173.368 Y62.94 E38.02752
G1 X173.761 Y63.753 E38.05755
G1 X174.079 Y64.598 E38.08758
G1 X174.322 Y65.468 E38.11762
G1 X174.487 Y66.356 E38.14767
G1 X174.582 Y67.486 E38.18538
G1 X174.595 Y68.093 E38.20558
G1 X174.594 Y177.153 E41.83293
G1 X174.585 Y177.88 E41.85711
G1 X174.534 Y178.782 E41.88716
G1 X174.403 Y179.676 E41.91721
G1 X174.194 Y180.554 E41.94723
G1 X173.908 Y181.411 E41.97728
G1 X173.547 Y182.239 E42.00732
G1 X173.115 Y183.031 E42.03732
G1 X172.614 Y183.783 E42.06738
G1 X172.048 Y184.487 E42.09742
G1 X171.423 Y185.138 E42.12744
G1 X170.742 Y185.732 E42.15749
G1 X170.011 Y186.263 E42.18755
G1 X169.237 Y186.727 E42.21756
G1 X168.424 Y187.121 E42.24761
G1 X167.58 Y187.441 E42.27763
G1 X166.71 Y187.686 E42.30769
G1 X165.823 Y187.852 E42.33771
G1 X164.672 Y187.95 E42.37613
G1 X164.065 Y187.963 E42.39632
G1 X54.97 Y187.962 E46.02483
G1 X54.272 Y187.953 E46.04805
G1 X53.371 Y187.902 E46.07807
G1 X52.477 Y187.77 E46.10812
G1 X51.599 Y187.561 E46.13814
G1 X50.742 Y187.274 E46.1682
G1 X49.915 Y186.913 E46.19822
G1 X49.122 Y186.48 E46.22827
G1 X48.371 Y185.979 E46.25829
G1 X47.667 Y185.413 E46.28834
G1 X47.016 Y184.787 E46.31838
G1 X46.423 Y184.106 E46.34841
G1 X45.893 Y183.375 E46.37844
G1 X45.429 Y182.6 E46.40848
G1 X45.035 Y181.787 E46.43853
G1 X44.715 Y180.943 E46.46855
G1 X44.471 Y180.073 E46.49861
G1 X44.305 Y179.185 E46.52865
G1 X44.208 Y178.03 E46.5672
G1 X44.195 Y177.421 E46.58746
G1 X44.196 Y68.299 E50.21688
G1 X44.205 Y67.634 E50.239
G1 X44.257 Y66.732 E50.26905
G1 X44.389 Y65.839 E50.29907
G1 X44.599 Y64.961 E50.3291
G1 X44.886 Y64.104 E50.35916
G1 X45.248 Y63.277 E50.38918
G1 X45.681 Y62.485 E50.41921
G1 X46.183 Y61.734 E50.44925
G1 X46.75 Y61.03 E50.47932
G1 X47.376 Y60.38 E50.50933
G1 X48.057 Y59.787 E50.53936
G1 F1500 E46.53936
;MESH:BumperCustomPCB.stl
G0 F6000 X55.192 Y67.098
G0 X163.792 Y177.16
;TYPE:WALL-INNER
G1 F1500 E50.53936
G1 F1200 X163.792 Y68.36 E54.15807
G1 X54.992 Y68.36 E57.77677
G1 X54.992 Y177.16 E61.39547
G1 X163.792 Y177.16 E65.01417
G0 F6000 X164.192 Y177.56
;TYPE:WALL-OUTER
G1 F1200 X164.192 Y67.96 E68.65949
G1 X54.592 Y67.96 E72.3048
G1 X54.592 Y177.56 E75.95011
G1 X164.192 Y177.56 E79.59542
G0 F6000 X163.925 Y177.293
G0 X163.692 Y176.8
G0 X163.432 Y176.8
;TYPE:SKIN
G1 F1200 X55.352 Y176.8 E83.19017
G1 X55.352 Y68.72 E86.78493
G1 X163.432 Y68.72 E90.37968
G1 X163.432 Y176.8 E93.97444
G1 F1500 E89.97444
G0 F6000 X163.692 Y176.8
G0 X163.692 Y68.92
G0 X162.824 Y68.92
G1 F1500 E93.97444
G1 F1200 X163.232 Y69.328 E93.99363
G0 F6000 X163.232 Y69.894
G1 F1200 X162.258 Y68.92 E94.03944
G0 F6000 X161.693 Y68.92
G1 F1200 X163.232 Y70.46 E94.11186
G0 F6000 X163.232 Y71.025
G1 F1200 X161.127 Y68.92 E94.21087
G0 F6000 X160.561 Y68.92
G1 F1200 X163.232 Y71.591 E94.33651
G0 F6000 X163.232 Y72.157
G1 F1200 X159.996 Y68.92 E94.48874
G0 F6000 X159.43 Y68.92
G1 F1200 X163.232 Y72.722 E94.66758
G0 F6000 X163.232 Y73.288
G1 F1200 X158.864 Y68.92 E94.87303
G0 F6000 X158.299 Y68.92
G1 F1200 X163.232 Y73.854 E95.10509
G0 F6000 X163.232 Y74.419
G1 F1200 X157.733 Y68.92 E95.36375
G0 F6000 X157.167 Y68.92
G1 F1200 X163.232 Y74.985 E95.64902
G0 F6000 X163.232 Y75.551
G1 F1200 X156.602 Y68.92 E95.9609
G0 F6000 X156.036 Y68.92
G1 F1200 X163.232 Y76.117 E96.2994
G0 F6000 X163.232 Y76.682
G1 F1200 X155.47 Y68.92 E96.66451
G0 F6000 X154.904 Y68.92
G1 F1200 X163.232 Y77.248 E97.05623
G0 F6000 X163.232 Y77.814
G1 F1200 X154.339 Y68.92 E97.47455
G0 F6000 X153.773 Y68.92
G1 F1200 X163.232 Y78.379 E97.91947
G0 F6000 X163.232 Y78.945
G1 F1200 X153.207 Y68.92 E98.39102
G0 F6000 X152.642 Y68.92
G1 F1200 X163.232 Y79.511 E98.88916
G0 F6000 X163.232 Y80.076
G1 F1200 X152.076 Y68.92 E99.41391
G0 F6000 X151.51 Y68.92
G1 F1200 X163.232 Y80.642 E99.96528
G0 F6000 X163.232 Y81.208
G1 F1200 X150.945 Y68.92 E100.54324
G0 F6000 X150.379 Y68.92
G1 F1200 X163.232 Y81.773 E101.14781
G0 F6000 X163.232 Y82.339
G1 F1200 X149.813 Y68.92 E101.779
G0 F6000 X149.248 Y68.92
G1 F1200 X163.232 Y82.905 E102.43678
G0 F6000 X163.232 Y83.47
G1 F1200 X148.682 Y68.92 E103.12117
G0 F6000 X148.116 Y68.92
G1 F1200 X163.232 Y84.036 E103.83218
G0 F6000 X163.232 Y84.602
G1 F1200 X147.551 Y68.92 E104.56979
G0 F6000 X146.985 Y68.92
G1 F1200 X163.232 Y85.167 E105.334
G0 F6000 X163.232 Y85.733
G1 F1200 X146.419 Y68.92 E106.12483
G0 F6000 X145.854 Y68.92
G1 F1200 X163.232 Y86.299 E106.94226
G0 F6000 X163.232 Y86.865
G1 F1200 X145.288 Y68.92 E107.78632
G0 F6000 X144.722 Y68.92
G1 F1200 X163.232 Y87.43 E108.65697
G0 F6000 X163.232 Y87.996
G1 F1200 X144.156 Y68.92 E109.55425
G0 F6000 X143.591 Y68.92
G1 F1200 X163.232 Y88.562 E110.47812
G0 F6000 X163.232 Y89.127
G1 F1200 X143.025 Y68.92 E111.4286
G0 F6000 X142.459 Y68.92
G1 F1200 X163.232 Y89.693 E112.4057
G0 F6000 X163.232 Y90.259
G1 F1200 X141.894 Y68.92 E113.4094
G0 F6000 X141.328 Y68.92
G1 F1200 X163.232 Y90.824 E114.43969
G0 F6000 X163.232 Y91.39
G1 F1200 X140.762 Y68.92 E115.49661
G0 F6000 X140.197 Y68.92
G1 F1200 X163.232 Y91.956 E116.58013
G0 F6000 X163.232 Y92.521
G1 F1200 X139.631 Y68.92 E117.69025
G0 F6000 X139.065 Y68.92
G1 F1200 X163.232 Y93.087 E118.82699
G0 F6000 X163.232 Y93.653
G1 F1200 X138.5 Y68.92 E119.99033
G0 F6000 X137.934 Y68.92
G1 F1200 X163.232 Y94.218 E121.18027
G0 F6000 X163.232 Y94.784
G1 F1200 X137.368 Y68.92 E122.39684
G0 F6000 X136.803 Y68.92
G1 F1200 X163.232 Y95.35 E123.64
G0 F6000 X163.232 Y95.915
G1 F1200 X136.237 Y68.92 E124.90976
G0 F6000 X135.671 Y68.92
G1 F1200 X163.232 Y96.481 E126.20615
G0 F6000 X163.232 Y97.047
G1 F1200 X135.105 Y68.92 E127.52915
G0 F6000 X134.54 Y68.92
G1 F1200 X163.232 Y97.613 E128.87876
G0 F6000 X163.232 Y98.178
G1 F1200 X133.974 Y68.92 E130.25497
G0 F6000 X133.408 Y68.92
G1 F1200 X163.232 Y98.744 E131.6578
G0 F6000 X163.232 Y99.31
G1 F1200 X132.843 Y68.92 E133.08723
G0 F6000 X132.277 Y68.92
G1 F1200 X163.232 Y99.875 E134.54325
G0 F6000 X163.232 Y100.441
G1 F1200 X131.711 Y68.92 E136.02591
G0 F6000 X131.146 Y68.92
G1 F1200 X163.232 Y101.007 E137.53516
G0 F6000 X163.232 Y101.572
G1 F1200 X130.58 Y68.92 E139.07101
G0 F6000 X130.014 Y68.92
G1 F1200 X163.232 Y102.138 E140.63348
G0 F6000 X163.232 Y102.704
G1 F1200 X129.449 Y68.92 E142.22255
G0 F6000 X128.883 Y68.92
G1 F1200 X163.232 Y103.269 E143.83822
G0 F6000 X163.232 Y103.835
G1 F1200 X128.317 Y68.92 E145.48052
G0 F6000 X127.752 Y68.92
G1 F1200 X163.232 Y104.401 E147.14941
G0 F6000 X163.232 Y104.966
G1 F1200 X127.186 Y68.92 E148.8449
G0 F6000 X126.62 Y68.92
G1 F1200 X163.232 Y105.532 E150.56702
G0 F6000 X163.232 Y106.098
G1 F1200 X126.055 Y68.92 E152.31574
G0 F6000 X125.489 Y68.92
G1 F1200 X163.232 Y106.664 E154.09107
G0 F6000 X163.232 Y107.229
G1 F1200 X124.923 Y68.92 E155.89301
G0 F6000 X124.357 Y68.92
G1 F1200 X163.232 Y107.795 E157.72157
G0 F6000 X163.232 Y108.361
G1 F1200 X123.792 Y68.92 E159.57673
G0 F6000 X123.226 Y68.92
G1 F1200 X163.232 Y108.926 E161.45849
G0 F6000 X163.232 Y109.492
G1 F1200 X122.66 Y68.92 E163.36688
G0 F6000 X122.095 Y68.92
G1 F1200 X163.232 Y110.058 E165.30186
G0 F6000 X163.232 Y110.623
G1 F1200 X121.529 Y68.92 E167.26344
G0 F6000 X120.963 Y68.92
G1 F1200 X163.232 Y111.189 E169.25164
G0 F6000 X163.232 Y111.755
G1 F1200 X120.398 Y68.92 E171.26645
G0 F6000 X119.832 Y68.92
G1 F1200 X163.232 Y112.32 E173.30785
G0 F6000 X163.232 Y112.886
G1 F1200 X119.266 Y68.92 E175.37588
G0 F6000 X118.701 Y68.92
G1 F1200 X163.232 Y113.452 E177.4705
G0 F6000 X163.232 Y114.017
G1 F1200 X118.135 Y68.92 E179.59173
G0 F6000 X117.569 Y68.92
G1 F1200 X163.232 Y114.583 E181.73957
G0 F6000 X163.232 Y115.149
G1 F1200 X117.004 Y68.92 E183.91402
G0 F6000 X116.438 Y68.92
G1 F1200 X163.232 Y115.714 E186.11507
G0 F6000 X163.232 Y116.28
G1 F1200 X115.872 Y68.92 E188.34274
G0 F6000 X115.306 Y68.92
G1 F1200 X163.232 Y116.846 E190.59703
G0 F6000 X163.232 Y117.412
G1 F1200 X114.741 Y68.92 E192.87792
G0 F6000 X114.175 Y68.92
G1 F1200 X163.232 Y117.977 E195.18541
G0 F6000 X163.232 Y118.543
G1 F1200 X113.609 Y68.92 E197.51952
G0 F6000 X113.044 Y68.92
G1 F1200 X163.232 Y119.109 E199.88024
G0 F6000 X163.232 Y119.674
G1 F1200 X112.478 Y68.92 E202.26755
G0 F6000 X111.912 Y68.92
G1 F1200 X163.232 Y120.24 E204.68148
G0 F6000 X163.232 Y120.806
G1 F1200 X111.347 Y68.92 E207.12202
G0 F6000 X110.781 Y68.92
G1 F1200 X163.232 Y121.371 E209.58915
G0 F6000 X163.232 Y121.937
G1 F1200 X110.215 Y68.92 E212.08291
G0 F6000 X109.65 Y68.92
G1 F1200 X163.232 Y122.503 E214.60327
G0 F6000 X163.232 Y123.068
G1 F1200 X109.084 Y68.92 E217.15022
G0 F6000 X108.518 Y68.92
G1 F1200 X163.232 Y123.634 E219.7238
G0 F6000 X163.232 Y124.2
G1 F1200 X107.953 Y68.92 E222.32398
G0 F6000 X107.387 Y68.92
G1 F1200 X163.232 Y124.765 E224.95076
G0 F6000 X163.232 Y125.331
G1 F1200 X106.821 Y68.92 E227.60416
G0 F6000 X106.256 Y68.92
G1 F1200 X163.232 Y125.897 E230.28416
G0 F6000 X163.232 Y126.463
G1 F1200 X105.69 Y68.92 E232.99078
G0 F6000 X105.124 Y68.92
G1 F1200 X163.232 Y127.028 E235.724
G0 F6000 X163.232 Y127.594
G1 F1200 X104.558 Y68.92 E238.48385
G0 F6000 X103.993 Y68.92
G1 F1200 X163.232 Y128.16 E241.27029
G0 F6000 X163.232 Y128.725
G1 F1200 X103.427 Y68.92 E244.08334
G0 F6000 X102.861 Y68.92
G1 F1200 X163.232 Y129.291 E246.923
G0 F6000 X163.232 Y129.857
G1 F1200 X102.296 Y68.92 E249.78927
G0 F6000 X101.73 Y68.92
G1 F1200 X163.232 Y130.422 E252.68214
G0 F6000 X163.232 Y130.988
G1 F1200 X101.164 Y68.92 E255.60162
G0 F6000 X100.599 Y68.92
G1 F1200 X163.232 Y131.554 E258.54771
G0 F6000 X163.232 Y132.119
G1 F1200 X100.033 Y68.92 E261.5204
G0 F6000 X99.467 Y68.92
G1 F1200 X163.232 Y132.685 E264.51971
G0 F6000 X163.232 Y133.251
G1 F1200 X98.902 Y68.92 E267.54562
G0 F6000 X98.336 Y68.92
G1 F1200 X163.232 Y133.816 E270.59813
G0 F6000 X163.232 Y134.382
G1 F1200 X97.77 Y68.92 E273.67726
G0 F6000 X97.205 Y68.92
G1 F1200 X163.232 Y134.948 E276.78299
G0 F6000 X163.232 Y135.513
G1 F1200 X96.639 Y68.92 E279.91532
G0 F6000 X96.073 Y68.92
G1 F1200 X163.232 Y136.079 E283.07427
G0 F6000 X163.232 Y136.645
