;FLAVOR:Marlin
;TIME:18760
;Filament used: 11.8576m
;Layer height: 0.2
;MINX:60.9
;MINY:80.839
;MINZ:0.2
;MAXX:159.1
;MAXY:139.161
;MAXZ:54
;TARGET_MACHINE.NAME:Creality Ender-3 v2 Neo
;Generated with Cura_SteamEngine 5.7.1
M140 S60
M105
M190 S60
M104 S200
M105
M109 S200
M82 ;absolute extrusion mode
G92 E0 ;Reset Extruder
G28 ;Home
G1 Z2.0 F3000 ;Move Z Axis up
G1 X5.1 Y20 Z0.28 F5000.0 ;Move to start position
G1 X5.1 Y200.0 Z0.28 F1500.0 E15 ;Draw the first line
G1 X5.4 Y200.0 Z0.28 F5000.0 ;Move to side a little
G1 X5.4 Y20 Z0.28 F1500.0 E30 ;Draw the second line
G92 E0 ;Reset Extruder
G1 Z2.0 F3000 ;Move Z Axis up
G92 E0
G92 E0
G1 F1500 E-4
;LAYER_COUNT:270
;LAYER:0
M107
G0 F6000 X65.092 Y83.215 Z0.2
;TYPE:SKIRT
G1 F1500 E0
G1 F1200 X65.824 Y82.685 E0.03006
G1 X66.721 Y82.15 E0.0648
G1 X67.599 Y81.729 E0.09718
G1 X68.512 Y81.387 E0.12961
G1 X69.449 Y81.128 E0.16194
G1 X70.416 Y80.95 E0.19465
G1 X71.555 Y80.854 E0.23266
G1 X72.212 Y80.839 E0.25452
G1 X147.404 Y80.839 E2.75542
G1 X148.284 Y80.852 E2.78469
G1 X149.256 Y80.911 E2.81708
G1 X150.219 Y81.057 E2.84947
G1 X151.166 Y81.288 E2.88189
G1 X152.054 Y81.588 E2.91307
G1 X152.946 Y81.978 E2.94545
G1 X153.829 Y82.465 E2.97899
G1 X154.58 Y82.967 E3.00903
G1 X155.395 Y83.625 E3.04387
G1 X156.093 Y84.303 E3.07624
G1 X156.729 Y85.04 E3.10861
G1 X157.299 Y85.83 E3.14102
G1 X157.761 Y86.606 E3.17105
G1 X158.215 Y87.548 E3.20583
G1 X158.544 Y88.426 E3.23702
G1 X158.813 Y89.398 E3.27056
G1 X158.99 Y90.364 E3.30323
G1 X159.085 Y91.494 E3.34094
G1 X159.1 Y92.169 E3.3634
G1 X159.099 Y127.561 E4.54054
G1 X159.088 Y128.324 E4.56592
G1 X159.031 Y129.297 E4.59834
G1 X158.886 Y130.26 E4.63073
G1 X158.657 Y131.206 E4.6631
G1 X158.346 Y132.13 E4.69553
G1 X157.954 Y133.021 E4.72791
G1 X157.486 Y133.873 E4.76024
G1 X156.964 Y134.654 E4.79148
G1 X156.331 Y135.439 E4.82502
G1 X155.706 Y136.09 E4.85504
G1 X154.917 Y136.778 E4.88985
G1 X154.157 Y137.328 E4.92106
G1 X153.29 Y137.845 E4.95463
G1 X152.412 Y138.267 E4.98703
G1 X151.501 Y138.609 E5.0194
G1 X150.562 Y138.87 E5.05181
G1 X149.596 Y139.048 E5.08448
G1 X148.445 Y139.146 E5.1229
G1 X147.77 Y139.161 E5.14536
G1 X72.464 Y139.16 E7.65005
G1 X71.731 Y139.149 E7.67443
G1 X70.759 Y139.092 E7.70681
G1 X69.796 Y138.946 E7.73921
G1 X68.85 Y138.717 E7.77158
G1 X67.926 Y138.405 E7.80402
G1 X67.036 Y138.013 E7.83636
G1 X66.213 Y137.562 E7.86758
G1 X65.374 Y137.001 E7.90115
G1 X64.67 Y136.435 E7.93119
G1 X63.917 Y135.71 E7.96596
G1 X63.28 Y134.974 E7.99833
G1 X62.75 Y134.243 E8.02836
G1 X62.214 Y133.346 E8.06312
G1 X61.792 Y132.468 E8.09552
G1 X61.45 Y131.556 E8.12792
G1 X61.19 Y130.618 E8.16029
G1 X61.012 Y129.649 E8.19306
G1 X60.914 Y128.47 E8.23241
G1 X60.9 Y127.819 E8.25406
G1 X60.901 Y92.364 E9.4333
G1 X60.912 Y91.664 E9.45659
G1 X60.97 Y90.691 E9.48901
G1 X61.116 Y89.728 E9.5214
G1 X61.346 Y88.782 E9.55378
G1 X61.659 Y87.859 E9.5862
G1 X62.051 Y86.969 E9.61854
G1 X62.521 Y86.116 E9.65094
G1 X63.064 Y85.308 E9.68332
G1 X63.631 Y84.604 E9.71338
G1 X64.356 Y83.852 E9.74812
G1 X65.092 Y83.215 E9.7805
G0 F6000 X65.327 Y83.539
G1 F1200 X66.059 Y83.009 E9.81056
G1 X66.895 Y82.51 E9.84294
G1 X67.74 Y82.103 E9.87413
G1 X68.619 Y81.772 E9.90537
G1 X69.522 Y81.521 E9.93655
G1 X70.45 Y81.349 E9.96794
G1 X71.589 Y81.253 E10.00595
G1 X72.221 Y81.239 E10.02698
G1 X147.398 Y81.239 E12.52738
G1 X148.26 Y81.251 E12.55605
G1 X149.197 Y81.307 E12.58727
G1 X150.125 Y81.446 E12.61848
G1 X151.038 Y81.667 E12.64972
G1 X151.894 Y81.955 E12.67976
G1 X152.786 Y82.345 E12.71214
G1 X153.607 Y82.798 E12.74333
G1 X154.358 Y83.3 E12.77338
G1 X155.117 Y83.912 E12.8058
G1 X155.791 Y84.565 E12.83702
G1 X156.405 Y85.274 E12.86821
G1 X156.955 Y86.035 E12.89944
G1 X157.417 Y86.811 E12.92948
G1 X157.84 Y87.688 E12.96186
G1 X158.169 Y88.566 E12.99305
G1 X158.42 Y89.471 E13.02429
G1 X158.591 Y90.398 E13.05564
G1 X158.686 Y91.528 E13.09335
G1 X158.7 Y92.169 E13.11468
G1 X158.699 Y127.556 E14.29166
G1 X158.689 Y128.301 E14.31644
G1 X158.635 Y129.238 E14.34765
G1 X158.497 Y130.167 E14.37889
G1 X158.278 Y131.079 E14.41009
G1 X157.98 Y131.969 E14.4413
G1 X157.603 Y132.829 E14.47253
G1 X157.153 Y133.651 E14.5037
G1 X156.631 Y134.432 E14.53495
G1 X156.042 Y135.162 E14.56615
G1 X155.417 Y135.813 E14.59616
G1 X154.682 Y136.454 E14.6286
G1 X153.922 Y137.004 E14.6598
G1 X153.116 Y137.485 E14.69102
G1 X152.271 Y137.893 E14.72223
G1 X151.393 Y138.224 E14.75344
G1 X150.489 Y138.477 E14.78466
G1 X149.562 Y138.649 E14.81602
G1 X148.411 Y138.747 E14.85444
G1 X147.77 Y138.761 E14.87576
G1 X72.47 Y138.76 E17.38025
G1 X71.754 Y138.75 E17.40407
G1 X70.818 Y138.696 E17.43525
G1 X69.889 Y138.557 E17.46649
G1 X68.977 Y138.338 E17.49769
G1 X68.087 Y138.039 E17.52892
G1 X67.228 Y137.662 E17.56012
G1 X66.405 Y137.211 E17.59133
G1 X65.625 Y136.689 E17.62255
G1 X64.921 Y136.123 E17.65259
G1 X64.219 Y135.448 E17.68498
G1 X63.604 Y134.739 E17.7162
G1 X63.074 Y134.008 E17.74623
G1 X62.574 Y133.172 E17.77863
G1 X62.166 Y132.327 E17.80984
G1 X61.835 Y131.449 E17.84105
G1 X61.583 Y130.545 E17.87226
G1 X61.411 Y129.616 E17.90369
G1 X61.313 Y128.437 E17.94303
G1 X61.3 Y127.819 E17.96359
G1 X61.301 Y92.37 E19.14263
G1 X61.311 Y91.687 E19.16535
G1 X61.366 Y90.75 E19.19657
G1 X61.505 Y89.822 E19.22778
G1 X61.725 Y88.91 E19.25898
G1 X62.025 Y88.02 E19.29022
G1 X62.402 Y87.161 E19.32142
G1 X62.853 Y86.339 E19.35261
G1 X63.376 Y85.559 E19.38384
G1 X63.943 Y84.855 E19.41391
G1 X64.618 Y84.154 E19.44627
G1 X65.327 Y83.539 E19.47749
G0 F6000 X65.562 Y83.863
G1 F1200 X66.294 Y83.333 E19.50755
G1 X67.069 Y82.87 E19.53758
G1 X67.882 Y82.477 E19.56761
G1 X68.727 Y82.157 E19.59766
G1 X69.596 Y81.914 E19.62767
G1 X70.484 Y81.748 E19.65772
G1 X71.623 Y81.652 E19.69574
G1 X72.23 Y81.639 E19.71593
G1 X147.393 Y81.639 E22.21586
G1 X148.237 Y81.65 E22.24394
G1 X149.139 Y81.703 E22.27399
G1 X150.032 Y81.835 E22.30401
G1 X150.91 Y82.046 E22.33405
G1 X151.766 Y82.334 E22.36409
G1 X152.593 Y82.696 E22.39411
G1 X153.385 Y83.131 E22.42417
G1 X154.136 Y83.633 E22.45421
G1 X154.839 Y84.2 E22.48425
G1 X155.489 Y84.827 E22.51429
G1 X156.081 Y85.509 E22.54432
G1 X156.611 Y86.24 E22.57436
G1 X157.073 Y87.016 E22.60439
G1 X157.466 Y87.829 E22.63443
G1 X157.784 Y88.674 E22.66446
G1 X158.027 Y89.544 E22.6945
G1 X158.192 Y90.432 E22.72454
G1 X158.287 Y91.562 E22.76226
G1 X158.3 Y92.169 E22.78245
G1 X158.299 Y127.551 E23.95926
G1 X158.29 Y128.278 E23.98344
G1 X158.239 Y129.18 E24.01349
G1 X158.108 Y130.074 E24.04354
G1 X157.899 Y130.952 E24.07356
G1 X157.613 Y131.809 E24.10361
G1 X157.252 Y132.637 E24.13365
G1 X156.82 Y133.429 E24.16366
G1 X156.319 Y134.181 E24.19371
G1 X155.753 Y134.885 E24.22376
G1 X155.128 Y135.536 E24.25377
G1 X154.447 Y136.13 E24.28383
G1 X153.716 Y136.661 E24.31388
G1 X152.942 Y137.125 E24.3439
G1 X152.129 Y137.519 E24.37394
G1 X151.285 Y137.839 E24.40397
G1 X150.415 Y138.084 E24.43403
G1 X149.528 Y138.25 E24.46404
G1 X148.377 Y138.348 E24.50246
G1 X147.77 Y138.361 E24.52266
G1 X72.475 Y138.36 E27.02698
G1 X71.777 Y138.351 E27.0502
G1 X70.876 Y138.3 E27.08021
G1 X69.982 Y138.168 E27.11027
G1 X69.104 Y137.959 E27.14029
G1 X68.247 Y137.672 E27.17035
G1 X67.42 Y137.311 E27.20036
G1 X66.627 Y136.878 E27.23041
G1 X65.876 Y136.377 E27.26044
G1 X65.172 Y135.811 E27.29048
G1 X64.521 Y135.185 E27.32052
G1 X63.928 Y134.504 E27.35055
G1 X63.398 Y133.773 E27.38058
G1 X62.934 Y132.998 E27.41063
G1 X62.54 Y132.185 E27.44068
G1 X62.22 Y131.341 E27.4707
G1 X61.976 Y130.471 E27.50075
G1 X61.81 Y129.583 E27.5308
G1 X61.713 Y128.428 E27.56935
G1 X61.7 Y127.819 E27.58961
G1 X61.701 Y92.375 E28.76848
G1 X61.71 Y91.71 E28.7906
G1 X61.762 Y90.808 E28.82065
G1 X61.894 Y89.915 E28.85067
G1 X62.104 Y89.037 E28.8807
G1 X62.391 Y88.18 E28.91076
G1 X62.753 Y87.353 E28.94079
G1 X63.186 Y86.561 E28.97081
G1 X63.688 Y85.81 E29.00085
G1 X64.255 Y85.106 E29.03092
G1 X64.881 Y84.456 E29.06093
G1 X65.562 Y83.863 E29.09097
G1 F1500 E25.09097
;MESH:InventorSaveOfSTL.stl
G0 F6000 X72.32 Y91.174
G0 X147.5 Y127.56
;TYPE:WALL-INNER
G1 F1500 E29.09097
G1 F1200 X147.5 Y92.436 E30.2592
G1 X72.5 Y92.436 E32.75371
G1 X72.5 Y127.56 E33.92194
G1 X147.5 Y127.56 E36.41645
G0 F6000 X147.9 Y127.96
;TYPE:WALL-OUTER
G1 F1200 X147.9 Y92.036 E37.61128
G1 X72.1 Y92.036 E40.1324
G1 X72.1 Y127.96 E41.32724
G1 X147.9 Y127.96 E43.84836
G0 F6000 X147.63 Y127.691
G0 X147.14 Y127.46
G0 X147.14 Y127.2
;TYPE:SKIN
G1 F1200 X72.86 Y127.2 E46.31892
G1 X72.86 Y92.796 E47.4632
G1 X147.14 Y92.796 E49.93376
G1 X147.14 Y127.2 E51.07805
G1 F1500 E47.07805
G0 F6000 X147.14 Y127.46
G0 X147.328 Y92.608
G0 X146.736 Y92.536
G0 X146.736 Y92.996
G1 F1500 E51.07805
G1 F1200 X146.94 Y93.2 E51.08764
G0 F6000 X146.94 Y93.766
G1 F1200 X146.17 Y92.996 E51.12386
G0 F6000 X145.605 Y92.996
G1 F1200 X146.94 Y94.332 E51.18668
G0 F6000 X146.94 Y94.897
G1 F1200 X145.039 Y92.996 E51.27609
G0 F6000 X144.473 Y92.996
G1 F1200 X146.94 Y95.463 E51.39213
G0 F6000 X146.94 Y96.029
G1 F1200 X143.908 Y92.996 E51.53477
G0 F6000 X143.342 Y92.996
G1 F1200 X146.94 Y96.594 E51.70401
G0 F6000 X146.94 Y97.16
G1 F1200 X142.776 Y92.996 E51.89987
G0 F6000 X142.21 Y92.996
G1 F1200 X146.94 Y97.726 E52.12236
G0 F6000 X146.94 Y98.291
G1 F1200 X141.645 Y92.996 E52.37142
G0 F6000 X141.079 Y92.996
G1 F1200 X146.94 Y98.857 E52.6471
G0 F6000 X146.94 Y99.423
G1 F1200 X140.513 Y92.996 E52.94941
G0 F6000 X139.948 Y92.996
G1 F1200 X146.94 Y99.988 E53.27829
G0 F6000 X146.94 Y100.554
G1 F1200 X139.382 Y92.996 E53.6338
G0 F6000 X138.816 Y92.996
G1 F1200 X146.94 Y101.12 E54.01593
G0 F6000 X146.94 Y101.685
G1 F1200 X138.251 Y92.996 E54.42463
G0 F6000 X137.685 Y92.996
G1 F1200 X146.94 Y102.251 E54.85996
G0 F6000 X146.94 Y102.817
G1 F1200 X137.119 Y92.996 E55.32191
G0 F6000 X136.554 Y92.996
G1 F1200 X146.94 Y103.383 E55.81045
G0 F6000 X146.94 Y103.948
G1 F1200 X135.988 Y92.996 E56.3256
G0 F6000 X135.422 Y92.996
G1 F1200 X146.94 Y104.514 E56.86737
G0 F6000 X146.94 Y105.08
G1 F1200 X134.857 Y92.996 E57.43575
G0 F6000 X134.291 Y92.996
G1 F1200 X146.94 Y105.645 E58.03072
G0 F6000 X146.94 Y106.211
G1 F1200 X133.725 Y92.996 E58.65231
G0 F6000 X133.16 Y92.996
G1 F1200 X146.94 Y106.777 E59.3005
G0 F6000 X146.94 Y107.342
G1 F1200 X132.594 Y92.996 E59.97529
G0 F6000 X132.028 Y92.996
G1 F1200 X146.94 Y107.908 E60.67671
G0 F6000 X146.94 Y108.474
G1 F1200 X131.462 Y92.996 E61.40475
G0 F6000 X130.897 Y92.996
G1 F1200 X146.94 Y109.039 E62.15936
G0 F6000 X146.94 Y109.605
G1 F1200 X130.331 Y92.996 E62.9406
G0 F6000 X129.765 Y92.996
G1 F1200 X146.94 Y110.171 E63.74845
G0 F6000 X146.94 Y110.736
G1 F1200 X129.2 Y92.996 E64.58289
G0 F6000 X128.634 Y92.996
G1 F1200 X146.94 Y111.302 E65.44395
G0 F6000 X146.94 Y111.868
G1 F1200 X128.068 Y92.996 E66.33163
G0 F6000 X127.503 Y92.996
G1 F1200 X146.94 Y112.434 E67.24591
G0 F6000 X146.94 Y112.999
G1 F1200 X126.937 Y92.996 E68.18679
G0 F6000 X126.371 Y92.996
G1 F1200 X146.94 Y113.565 E69.15429
G0 F6000 X146.94 Y114.131
G1 F1200 X125.806 Y92.996 E70.14839
G0 F6000 X125.24 Y92.996
G1 F1200 X146.94 Y114.696 E71.1691
G0 F6000 X146.94 Y115.262
G1 F1200 X124.674 Y92.996 E72.21642
G0 F6000 X124.109 Y92.996
G1 F1200 X146.94 Y115.828 E73.29034
G0 F6000 X146.94 Y116.393
G1 F1200 X123.543 Y92.996 E74.39087
G0 F6000 X122.977 Y92.996
G1 F1200 X146.94 Y116.959 E75.51801
G0 F6000 X146.94 Y117.525
G1 F1200 X122.411 Y92.996 E76.67178
G0 F6000 X121.846 Y92.996
G1 F1200 X146.94 Y118.09 E77.85213
G0 F6000 X146.94 Y118.656
G1 F1200 X121.28 Y92.996 E79.05909
G0 F6000 X120.714 Y92.996
G1 F1200 X146.94 Y119.222 E80.29268
G0 F6000 X146.94 Y119.787
G1 F1200 X120.149 Y92.996 E81.55285
G0 F6000 X119.583 Y92.996
G1 F1200 X146.94 Y120.353 E82.83964
G0 F6000 X146.94 Y120.919
G1 F1200 X119.017 Y92.996 E84.15305
G0 F6000 X118.452 Y92.996
G1 F1200 X146.94 Y121.484 E85.49304
G0 F6000 X146.94 Y122.05
G1 F1200 X117.886 Y92.996 E86.85965
G0 F6000 X117.32 Y92.996
G1 F1200 X146.94 Y122.616 E88.25289
G0 F6000 X146.94 Y123.182
G1 F1200 X116.755 Y92.996 E89.67272
G0 F6000 X116.189 Y92.996
G1 F1200 X146.94 Y123.747 E91.11915
G0 F6000 X146.94 Y124.313
G1 F1200 X115.623 Y92.996 E92.59221
G0 F6000 X115.058 Y92.996
G1 F1200 X146.94 Y124.879 E94.09186
G0 F6000 X146.94 Y125.444
G1 F1200 X114.492 Y92.996 E95.61812
G0 F6000 X113.926 Y92.996
G1 F1200 X146.94 Y126.01 E97.17099
G0 F6000 X146.94 Y126.576
G1 F1200 X113.361 Y92.996 E98.75047
G0 F6000 X112.795 Y92.996
G1 F1200 X146.799 Y127 E100.34992
G0 F6000 X146.233 Y127
G1 F1200 X112.229 Y92.996 E101.94936
G0 F6000 X111.663 Y92.996
G1 F1200 X145.668 Y127 E103.54883
G0 F6000 X145.102 Y127
G1 F1200 X111.098 Y92.996 E105.14827
G0 F6000 X110.532 Y92.996
G1 F1200 X144.536 Y127 E106.74771
G0 F6000 X143.97 Y127
G1 F1200 X109.966 Y92.996 E108.34716
G0 F6000 X109.401 Y92.996
G1 F1200 X143.405 Y127 E109.9466
G0 F6000 X142.839 Y127
G1 F1200 X108.835 Y92.996 E111.54605
G0 F6000 X108.269 Y92.996
G1 F1200 X142.273 Y127 E113.14549
G0 F6000 X141.708 Y127
G1 F1200 X107.704 Y92.996 E114.74493
G0 F6000 X107.138 Y92.996
G1 F1200 X141.142 Y127 E116.34438
G0 F6000 X140.576 Y127
G1 F1200 X106.572 Y92.996 E117.94382
G0 F6000 X106.007 Y92.996
G1 F1200 X140.011 Y127 E119.54327
G0 F6000 X139.445 Y127
G1 F1200 X105.441 Y92.996 E121.14271
G0 F6000 X104.875 Y92.996
G1 F1200 X138.879 Y127 E122.74215
G0 F6000 X138.314 Y127
G1 F1200 X104.31 Y92.996 E124.3416
G0 F6000 X103.744 Y92.996
G1 F1200 X137.748 Y127 E125.94104
G0 F6000 X137.182 Y127
G1 F1200 X103.178 Y92.996 E127.54049
G0 F6000 X102.613 Y92.996
G1 F1200 X136.617 Y127 E129.13993
G0 F6000 X136.051 Y127
G1 F1200 X102.047 Y92.996 E130.73937
G0 F6000 X101.481 Y92.996
G1 F1200 X135.485 Y127 E132.33882
G0 F6000 X134.92 Y127
G1 F1200 X100.915 Y92.996 E133.93828
G0 F6000 X100.35 Y92.996
G1 F1200 X134.354 Y127 E135.53773
G0 F6000 X133.788 Y127
G1 F1200 X99.784 Y92.996 E137.13717
G0 F6000 X99.218 Y92.996
G1 F1200 X133.222 Y127 E138.73662
G0 F6000 X132.657 Y127
G1 F1200 X98.653 Y92.996 E140.33606
G0 F6000 X98.087 Y92.996
G1 F1200 X132.091 Y127 E141.9355
G0 F6000 X131.525 Y127
G1 F1200 X97.521 Y92.996 E143.53495
G0 F6000 X96.956 Y92.996
G1 F1200 X130.96 Y127 E145.13439
G0 F6000 X130.394 Y127
G1 F1200 X96.39 Y92.996 E146.73384
G0 F6000 X95.824 Y92.996
G1 F1200 X129.828 Y127 E148.33328
G0 F6000 X129.263 Y127
G1 F1200 X95.259 Y92.996 E149.93272
G0 F6000 X94.693 Y92.996
G1 F1200 X128.697 Y127 E151.53217
G0 F6000 X128.131 Y127
G1 F1200 X94.127 Y92.996 E153.13161
G0 F6000 X93.562 Y92.996
G1 F1200 X127.566 Y127 E154.73106
G0 F6000 X127 Y127
G1 F1200 X92.996 Y92.996 E156.3305
G0 F6000 X92.43 Y92.996
G1 F1200 X126.434 Y127 E157.92994
G0 F6000 X125.869 Y127
G1 F1200 X91.864 Y92.996 E159.52941
G0 F6000 X91.299 Y92.996
G1 F1200 X125.303 Y127 E161.12885
G0 F6000 X124.737 Y127
G1 F1200 X90.733 Y92.996 E162.7283
G0 F6000 X90.167 Y92.996
G1 F1200 X124.171 Y127 E164.32774
G0 F6000 X123.606 Y127
G1 F1200 X89.602 Y92.996 E165.92719
G0 F6000 X89.036 Y92.996
G1 F1200 X123.04 Y127 E167.52663
G0 F6000 X122.474 Y127
G1 F1200 X88.47 Y92.996 E169.12607
G0 F6000 X87.905 Y92.996
G1 F1200 X121.909 Y127 E170.72552
G0 F6000 X121.343 Y127
G1 F1200 X87.339 Y92.996 E172.32496
G0 F6000 X86.773 Y92.996
G1 F1200 X120.777 Y127 E173.92441
G0 F6000 X120.212 Y127
G1 F1200 X86.208 Y92.996 E175.52385
G0 F6000 X85.642 Y92.996
G1 F1200 X119.646 Y127 E177.12329
G0 F6000 X119.08 Y127
G1 F1200 X85.076 Y92.996 E178.72274
G0 F6000 X84.511 Y92.996
G1 F1200 X118.515 Y127 E180.32218
G0 F6000 X117.949 Y127
G1 F1200 X83.945 Y92.996 E181.92163
G0 F6000 X83.379 Y92.996
G1 F1200 X117.383 Y127 E183.52107
G0 F6000 X116.818 Y127
G1 F1200 X82.814 Y92.996 E185.12051
G0 F6000 X82.248 Y92.996
G1 F1200 X116.252 Y127 E186.71996
G0 F6000 X115.686 Y127
G1 F1200 X81.682 Y92.996 E188.3194
G0 F6000 X81.116 Y92.996
G1 F1200 X115.121 Y127 E189.91887
G0 F6000 X114.555 Y127
G1 F1200 X80.551 Y92.996 E191.51831
G0 F6000 X79.985 Y92.996
G1 F1200 X113.989 Y127 E193.11776
G0 F6000 X113.423 Y127
G1 F1200 X79.419 Y92.996 E194.7172
G0 F6000 X78.854 Y92.996
G1 F1200 X112.858 Y127 E196.31664
G0 F6000 X112.292 Y127
G1 F1200 X78.288 Y92.996 E197.91609
G0 F6000 X77.722 Y92.996
G1 F1200 X111.726 Y127 E199.51553
G0 F6000 X111.161 Y127
G1 F1200 X77.157 Y92.996 E201.11498
G0 F6000 X76.591 Y92.996
