;FLAVOR:Marlin
;TIME:28373
;Filament used: 20.7479m
;Layer height: 0.2
;MINX:6.517
;MINY:14.725
;MINZ:0.2
;MAXX:196.019
;MAXY:218.49
;MAXZ:11.6
;TARGET_MACHINE.NAME:Creality Ender-3 v2 Neo
;Generated with Cura_SteamEngine 5.7.1
M140 S60
M105
M190 S60
M104 S200
M105
M109 S200
M82 ;absolute extrusion mode
G92 E0 ;Reset Extruder
G28 ;Home
G1 Z2.0 F3000 ;Move Z Axis up
G1 X5.1 Y20 Z0.28 F5000.0 ;Move to start position
G1 X5.1 Y200.0 Z0.28 F1500.0 E15 ;Draw the first line
G1 X5.4 Y200.0 Z0.28 F5000.0 ;Move to side a little
G1 X5.4 Y20 Z0.28 F1500.0 E30 ;Draw the second line
G92 E0 ;Reset Extruder
G1 Z2.0 F3000 ;Move Z Axis up
G92 E0
G92 E0
G1 F1500 E-4
;LAYER_COUNT:58
;LAYER:0
M107
G0 F6000 X28.034 Y21.729 Z0.2
;TYPE:SKIRT
G1 F1500 E0
G1 F1200 X28.592 Y21.063 E0.0289
G1 X29.024 Y20.573 E0.05063
G1 X29.807 Y19.787 E0.08753
G1 X30.386 Y19.27 E0.11334
G1 X30.853 Y18.875 E0.13369
G1 X31.581 Y18.312 E0.1643
G1 X32.168 Y17.906 E0.18803
G1 X32.808 Y17.492 E0.21339
G1 X33.702 Y16.973 E0.24777
G1 X34.334 Y16.654 E0.27131
G1 X34.94 Y16.366 E0.29363
G1 X35.774 Y16.014 E0.32374
G1 X36.548 Y15.736 E0.35109
G1 X37.187 Y15.529 E0.37343
G1 X38.189 Y15.259 E0.40795
G1 X38.97 Y15.093 E0.43451
G1 X39.559 Y14.986 E0.45442
G1 X40.547 Y14.854 E0.48757
G1 X41.157 Y14.8 E0.50794
G1 X41.877 Y14.76 E0.53192
G1 X43.472 Y14.729 E0.58498
G1 X46.083 Y14.725 E0.67182
G1 X53.96 Y14.74 E0.93381
G1 X170.547 Y14.735 E4.81151
G1 X170.887 Y14.726 E4.82283
G1 X171.667 Y14.733 E4.84877
G1 X176.551 Y14.73 E5.01121
G1 X178.14 Y14.761 E5.06407
G1 X178.894 Y14.804 E5.08919
G1 X179.384 Y14.848 E5.10555
G1 X180.236 Y14.962 E5.13415
G1 X181.054 Y15.105 E5.16176
G1 X181.75 Y15.246 E5.18538
G1 X182.974 Y15.581 E5.22759
G1 X183.806 Y15.864 E5.25682
G1 X184.886 Y16.298 E5.29553
G1 X185.707 Y16.681 E5.32567
G1 X186.278 Y16.964 E5.34686
G1 X187.127 Y17.448 E5.37937
G1 X187.84 Y17.911 E5.40764
G1 X188.231 Y18.182 E5.42346
G1 X189.015 Y18.78 E5.45626
G1 X189.668 Y19.324 E5.48453
G1 X190.131 Y19.73 E5.50501
G1 X191.072 Y20.681 E5.54951
G1 X191.687 Y21.384 E5.58057
G1 X192.389 Y22.282 E5.61848
G1 X192.876 Y22.979 E5.64676
G1 X193.239 Y23.527 E5.66863
G1 X193.754 Y24.41 E5.70263
G1 X194.132 Y25.157 E5.73047
G1 X194.338 Y25.597 E5.74663
G1 X194.695 Y26.453 E5.77748
G1 X195.004 Y27.294 E5.80728
G1 X195.231 Y27.974 E5.83112
G1 X195.498 Y28.96 E5.8651
G1 X195.65 Y29.687 E5.8898
G1 X195.762 Y30.303 E5.91062
G1 X195.896 Y31.31 E5.94441
G1 X195.961 Y32.052 E5.96919
G1 X195.998 Y32.692 E5.99051
G1 X196.019 Y33.62 E6.02138
G1 X196.009 Y43.224 E6.34081
G1 X196.017 Y101.537 E8.28031
G1 X195.989 Y102.876 E8.32486
G1 X195.946 Y103.637 E8.35021
G1 X195.9 Y104.137 E8.36691
G1 X195.785 Y104.995 E8.3957
G1 X195.638 Y105.83 E8.4239
G1 X195.509 Y106.476 E8.44581
G1 X195.163 Y107.744 E8.48952
G1 X194.892 Y108.542 E8.51755
G1 X194.448 Y109.648 E8.55719
G1 X194.08 Y110.437 E8.58615
G1 X193.809 Y110.985 E8.60648
G1 X193.349 Y111.803 E8.6377
G1 X192.729 Y112.802 E8.6768
G1 X191.415 Y114.987 E8.76161
G1 X190.173 Y117.196 E8.84589
G1 X189.003 Y119.415 E8.92933
G1 X187.881 Y121.7 E9.014
G1 X186.846 Y123.969 E9.09694
G1 X185.871 Y126.282 E9.18043
G1 X184.963 Y128.612 E9.2636
G1 X184.095 Y131.034 E9.34918
G1 X183.345 Y133.344 E9.42995
G1 X182.61 Y135.836 E9.51637
G1 X181.977 Y138.228 E9.59867
G1 X181.395 Y140.722 E9.68385
G1 X180.896 Y143.159 E9.76658
G1 X180.459 Y145.65 E9.8507
G1 X180.095 Y148.139 E9.93436
G1 X179.803 Y150.623 E10.01755
G1 X179.579 Y153.151 E10.10196
G1 X179.431 Y155.61 E10.1839
G1 X179.348 Y158.19 E10.26975
G1 X179.333 Y159.86 E10.3253
G1 X179.334 Y198.942 E11.62517
G1 X179.316 Y199.965 E11.6592
G1 X179.276 Y200.8 E11.68701
G1 X179.214 Y201.606 E11.71389
G1 X179.027 Y202.891 E11.75708
G1 X178.829 Y203.835 E11.78916
G1 X178.554 Y204.879 E11.82507
G1 X178.303 Y205.672 E11.85274
G1 X178.053 Y206.39 E11.87802
G1 X177.684 Y207.282 E11.91013
G1 X177.31 Y208.059 E11.93881
G1 X177.006 Y208.646 E11.9608
G1 X176.546 Y209.445 E11.99146
G1 X176.14 Y210.075 E12.01639
G1 X175.772 Y210.61 E12.03799
G1 X175.201 Y211.365 E12.06947
G1 X174.644 Y212.026 E12.09822
G1 X174.171 Y212.552 E12.12175
G1 X173.436 Y213.291 E12.15641
G1 X172.821 Y213.843 E12.1839
G1 X172.321 Y214.266 E12.20568
G1 X171.533 Y214.872 E12.23875
G1 X170.871 Y215.325 E12.26543
G1 X170.295 Y215.696 E12.28821
G1 X169.409 Y216.207 E12.32223
G1 X168.627 Y216.601 E12.35136
G1 X168.172 Y216.813 E12.36805
G1 X167.279 Y217.183 E12.4002
G1 X166.496 Y217.466 E12.42789
G1 X165.815 Y217.693 E12.45177
G1 X164.816 Y217.963 E12.48619
G1 X164.051 Y218.124 E12.51219
G1 X163.438 Y218.237 E12.53292
G1 X162.539 Y218.363 E12.56311
G1 X161.764 Y218.428 E12.58898
G1 X160.877 Y218.468 E12.61851
G1 X159.576 Y218.49 E12.66179
G1 X25.925 Y218.489 E17.10704
G1 X25.046 Y218.472 E17.13628
G1 X24.269 Y218.436 E17.16215
G1 X23.504 Y218.381 E17.18766
G1 X22.301 Y218.219 E17.22804
G1 X21.78 Y218.119 E17.24568
G1 X21.012 Y217.951 E17.27183
G1 X20.123 Y217.709 E17.30247
G1 X19.356 Y217.466 E17.32923
G1 X18.651 Y217.221 E17.35406
G1 X17.696 Y216.827 E17.38842
G1 X16.982 Y216.483 E17.41478
G1 X16.404 Y216.185 E17.43641
G1 X15.579 Y215.714 E17.468
G1 X14.911 Y215.28 E17.4945
G1 X14.426 Y214.943 E17.51414
G1 X13.658 Y214.357 E17.54627
G1 X12.993 Y213.8 E17.57512
G1 X12.458 Y213.328 E17.59885
G1 X11.703 Y212.576 E17.6343
G1 X11.149 Y211.958 E17.6619
G1 X10.751 Y211.488 E17.68238
G1 X10.162 Y210.727 E17.71439
G1 X9.727 Y210.099 E17.7398
G1 X9.324 Y209.476 E17.76448
G1 X8.78 Y208.531 E17.80074
G1 X8.409 Y207.785 E17.82846
G1 X8.179 Y207.294 E17.84649
G1 X7.819 Y206.42 E17.87793
G1 X7.546 Y205.666 E17.9046
G1 X7.318 Y204.984 E17.92852
G1 X7.062 Y204.054 E17.9606
G1 X6.885 Y203.221 E17.98892
G1 X6.77 Y202.592 E18.01019
G1 X6.644 Y201.687 E18.04058
G1 X6.576 Y200.866 E18.06798
G1 X6.541 Y200.057 E18.09491
G1 X6.518 Y198.7 E18.14005
G1 X6.517 Y131.22 E20.38445
G1 X6.537 Y130.213 E20.41795
G1 X6.597 Y129.009 E20.45804
G1 X6.625 Y128.659 E20.46972
G1 X6.785 Y127.477 E20.50939
G1 X6.882 Y126.968 E20.52663
G1 X7.056 Y126.174 E20.55366
G1 X7.302 Y125.267 E20.58492
G1 X7.546 Y124.498 E20.61175
G1 X7.784 Y123.812 E20.6359
G1 X8.171 Y122.876 E20.66959
G1 X8.552 Y122.085 E20.69879
G1 X8.839 Y121.53 E20.71957
G1 X9.279 Y120.76 E20.74907
G1 X9.892 Y119.78 E20.78752
G1 X10.635 Y118.62 E20.83334
G1 X11.942 Y116.443 E20.91779
G1 X13.173 Y114.251 E21.00141
G1 X14.357 Y112.002 E21.08594
G1 X15.453 Y109.767 E21.16873
G1 X16.499 Y107.467 E21.25277
G1 X17.485 Y105.126 E21.33726
G1 X18.393 Y102.792 E21.42055
G1 X19.227 Y100.454 E21.50312
G1 X20.013 Y98.035 E21.58771
G1 X20.721 Y95.629 E21.67113
G1 X21.36 Y93.204 E21.75454
G1 X21.945 Y90.693 E21.84029
G1 X22.44 Y88.266 E21.92268
G1 X22.872 Y85.788 E22.00634
G1 X23.234 Y83.3 E22.08996
G1 X23.53 Y80.777 E22.17445
G1 X23.747 Y78.315 E22.25665
G1 X23.897 Y75.798 E22.34052
G1 X23.977 Y73.252 E22.42524
G1 X23.991 Y71.635 E22.47902
G1 X23.983 Y33.934 E23.73297
G1 X24.011 Y32.617 E23.77678
G1 X24.054 Y31.863 E23.8019
G1 X24.099 Y31.363 E23.81859
G1 X24.213 Y30.513 E23.84712
G1 X24.356 Y29.695 E23.87474
G1 X24.491 Y29.024 E23.8975
G1 X24.795 Y27.882 E23.93681
G1 X25.04 Y27.145 E23.96264
G1 X25.182 Y26.752 E23.97654
G1 X25.549 Y25.857 E24.00871
G1 X25.918 Y25.066 E24.03774
G1 X26.2 Y24.498 E24.05883
G1 X26.754 Y23.533 E24.09584
G1 X27.156 Y22.92 E24.12023
G1 X27.438 Y22.513 E24.13669
G1 X28.034 Y21.729 E24.16945
G0 F6000 X28.341 Y21.986
G1 F1200 X28.892 Y21.327 E24.19802
G1 X29.307 Y20.855 E24.21892
G1 X30.074 Y20.085 E24.25507
G1 X30.644 Y19.575 E24.28051
G1 X31.098 Y19.191 E24.30029
G1 X31.809 Y18.641 E24.33019
G1 X32.385 Y18.242 E24.35349
G1 X33.009 Y17.838 E24.37822
G1 X33.883 Y17.33 E24.41184
G1 X34.505 Y17.015 E24.43503
G1 X35.096 Y16.735 E24.45678
G1 X35.93 Y16.383 E24.48689
G1 X36.672 Y16.116 E24.51312
G1 X37.291 Y15.915 E24.53476
G1 X38.272 Y15.65 E24.56856
G1 X39.041 Y15.487 E24.59471
G1 X39.63 Y15.38 E24.61462
G1 X40.582 Y15.252 E24.64656
G1 X41.179 Y15.199 E24.6665
G1 X41.885 Y15.16 E24.69002
G1 X43.473 Y15.129 E24.74284
G1 X46.082 Y15.125 E24.82962
G1 X53.959 Y15.14 E25.09161
G1 X170.558 Y15.135 E28.96971
G1 X170.883 Y15.126 E28.98052
G1 X171.663 Y15.133 E29.00647
G1 X176.543 Y15.13 E29.16878
G1 X178.117 Y15.16 E29.22114
G1 X178.858 Y15.202 E29.24582
G1 X179.331 Y15.245 E29.26162
G1 X180.167 Y15.356 E29.28967
G1 X180.975 Y15.497 E29.31695
G1 X181.645 Y15.632 E29.33968
G1 X182.846 Y15.96 E29.38109
G1 X183.657 Y16.235 E29.40957
G1 X184.717 Y16.66 E29.44756
G1 X185.529 Y17.039 E29.47736
G1 X186.08 Y17.312 E29.49781
G1 X186.909 Y17.784 E29.52954
G1 X187.612 Y18.24 E29.55741
G1 X188.003 Y18.511 E29.57323
G1 X188.759 Y19.087 E29.60484
G1 X189.404 Y19.625 E29.63278
G1 X189.867 Y20.031 E29.65326
G1 X190.787 Y20.962 E29.6968
G1 X191.372 Y21.631 E29.72635
G1 X192.061 Y22.511 E29.76353
G1 X192.543 Y23.2 E29.79149
G1 X192.894 Y23.729 E29.81261
G1 X193.397 Y24.591 E29.8458
G1 X193.77 Y25.327 E29.87325
G1 X193.969 Y25.751 E29.88883
G1 X194.32 Y26.591 E29.91911
G1 X194.625 Y27.421 E29.94852
G1 X194.845 Y28.079 E29.97159
G1 X195.106 Y29.042 E30.00478
G1 X195.256 Y29.759 E30.02914
G1 X195.368 Y30.375 E30.04997
G1 X195.498 Y31.345 E30.08252
G1 X195.562 Y32.075 E30.10689
G1 X195.598 Y32.701 E30.12774
G1 X195.619 Y33.62 E30.15832
G1 X195.609 Y43.224 E30.47775
G1 X195.617 Y101.529 E32.41698
G1 X195.59 Y102.854 E32.46106
G1 X195.548 Y103.6 E32.48591
G1 X195.503 Y104.084 E32.50208
G1 X195.391 Y104.926 E32.53033
G1 X195.246 Y105.752 E32.55822
G1 X195.123 Y106.371 E32.57921
G1 X194.784 Y107.615 E32.6221
G1 X194.513 Y108.413 E32.65013
G1 X194.085 Y109.479 E32.68833
G1 X193.721 Y110.26 E32.71699
G1 X193.46 Y110.789 E32.73661
G1 X193.009 Y111.592 E32.76725
G1 X192.389 Y112.591 E32.80635
G1 X191.072 Y114.781 E32.89135
G1 X189.824 Y117 E32.97602
G1 X188.649 Y119.228 E33.0598
G1 X187.522 Y121.524 E33.14487
G1 X186.482 Y123.803 E33.22819
G1 X185.502 Y126.127 E33.31208
G1 X184.59 Y128.467 E33.39561
G1 X183.719 Y130.899 E33.48153
G1 X182.961 Y133.231 E33.56308
G1 X182.226 Y135.723 E33.6495
G1 X181.59 Y138.126 E33.73218
G1 X181.005 Y140.631 E33.81773
G1 X180.504 Y143.079 E33.90084
G1 X180.065 Y145.581 E33.98533
G1 X179.699 Y148.081 E34.06937
G1 X179.406 Y150.576 E34.15292
G1 X179.181 Y153.116 E34.23773
G1 X179.031 Y155.597 E34.3204
G1 X178.948 Y158.177 E34.40626
G1 X178.933 Y159.856 E34.4621
G1 X178.934 Y198.935 E35.76188
G1 X178.916 Y199.946 E35.79551
G1 X178.877 Y200.77 E35.82294
G1 X178.818 Y201.549 E35.84893
G1 X178.635 Y202.809 E35.89128
G1 X178.442 Y203.733 E35.92267
G1 X178.173 Y204.758 E35.95792
G1 X177.925 Y205.541 E35.98524
G1 X177.683 Y206.237 E36.00974
G1 X177.314 Y207.129 E36.04185
G1 X176.955 Y207.875 E36.06939
G1 X176.659 Y208.447 E36.09081
G1 X176.21 Y209.228 E36.12077
G1 X175.81 Y209.848 E36.14531
G1 X175.442 Y210.383 E36.16691
G1 X174.895 Y211.107 E36.19709
G1 X174.346 Y211.759 E36.22544
G1 X173.887 Y212.27 E36.24828
G1 X173.169 Y212.993 E36.28217
G1 X172.562 Y213.538 E36.30931
G1 X172.077 Y213.949 E36.33045
G1 X171.307 Y214.542 E36.36277
G1 X170.655 Y214.989 E36.38907
G1 X170.095 Y215.349 E36.41121
G1 X169.209 Y215.86 E36.44523
G1 X168.458 Y216.238 E36.47319
G1 X168.003 Y216.45 E36.48989
G1 X167.143 Y216.807 E36.52086
G1 X166.37 Y217.087 E36.5482
G1 X165.71 Y217.307 E36.57134
G1 X164.733 Y217.572 E36.60501
G1 X163.979 Y217.731 E36.63064
G1 X163.382 Y217.841 E36.65083
G1 X162.505 Y217.964 E36.68029
G1 X161.746 Y218.028 E36.70562
G1 X160.87 Y218.068 E36.73479
G1 X159.576 Y218.09 E36.77783
G1 X25.933 Y218.089 E41.22282
G1 X25.064 Y218.072 E41.25172
G1 X24.298 Y218.037 E41.27723
G1 X23.533 Y217.982 E41.30274
G1 X22.376 Y217.826 E41.34157
G1 X21.865 Y217.728 E41.35887
G1 X21.117 Y217.565 E41.38434
G1 X20.244 Y217.328 E41.41442
G1 X19.487 Y217.088 E41.44084
G1 X18.804 Y216.851 E41.46488
G1 X17.849 Y216.457 E41.49924
G1 X17.165 Y216.127 E41.5245
G1 X16.587 Y215.829 E41.54613
G1 X15.797 Y215.378 E41.57639
G1 X15.139 Y214.951 E41.60248
G1 X14.669 Y214.625 E41.6215
G1 X13.915 Y214.05 E41.65304
G1 X13.257 Y213.5 E41.68156
G1 X12.74 Y213.045 E41.70447
G1 X12.001 Y212.309 E41.73916
G1 X11.454 Y211.699 E41.76641
G1 X11.067 Y211.243 E41.7863
G1 X10.491 Y210.499 E41.8176
G1 X10.063 Y209.881 E41.8426
G1 X9.671 Y209.276 E41.86658
G1 X9.127 Y208.331 E41.90284
G1 X8.771 Y207.615 E41.92944
G1 X8.549 Y207.141 E41.94685
G1 X8.195 Y206.284 E41.97769
G1 X7.925 Y205.539 E42.00404
G1 X7.704 Y204.878 E42.02722
G1 X7.448 Y203.948 E42.05931
G1 X7.278 Y203.149 E42.08648
G1 X7.166 Y202.537 E42.10717
G1 X7.043 Y201.654 E42.13682
G1 X6.976 Y200.848 E42.16372
G1 X6.941 Y200.05 E42.19029
G1 X6.918 Y198.7 E42.2352
G1 X6.917 Y131.228 E44.47932
G1 X6.936 Y130.233 E44.51242
G1 X6.996 Y129.041 E44.55212
G1 X7.024 Y128.691 E44.5638
G1 X7.178 Y127.552 E44.60203
G1 X7.273 Y127.054 E44.61889
G1 X7.447 Y126.26 E44.64592
G1 X7.683 Y125.388 E44.67597
G1 X7.924 Y124.629 E44.70246
G1 X8.154 Y123.965 E44.72583
G1 X8.541 Y123.029 E44.75952
G1 X8.907 Y122.269 E44.78757
G1 X9.194 Y121.714 E44.80835
G1 X9.618 Y120.972 E44.83678
G1 X10.229 Y119.996 E44.87508
G1 X10.972 Y118.836 E44.92089
G1 X12.285 Y116.649 E45.00574
G1 X13.522 Y114.447 E45.08974
G1 X14.711 Y112.188 E45.17465
G1 X15.812 Y109.943 E45.25781
G1 X16.863 Y107.633 E45.34222
G1 X17.854 Y105.281 E45.42711
G1 X18.766 Y102.937 E45.51076
G1 X19.604 Y100.588 E45.59372
G1 X20.397 Y98.148 E45.67905
G1 X21.105 Y95.742 E45.76247
G1 X21.747 Y93.306 E45.84625
G1 X22.335 Y90.784 E45.93239
G1 X22.832 Y88.346 E46.01514
G1 X23.266 Y85.857 E46.09917
G1 X23.63 Y83.358 E46.18317
G1 X23.927 Y80.824 E46.26803
G1 X24.145 Y78.35 E46.35063
G1 X24.297 Y75.811 E46.43523
G1 X24.377 Y73.265 E46.51995
G1 X24.391 Y71.638 E46.57407
G1 X24.383 Y33.942 E47.82784
G1 X24.41 Y32.64 E47.87116
G1 X24.452 Y31.899 E47.89584
G1 X24.496 Y31.416 E47.91197
G1 X24.607 Y30.582 E47.93996
G1 X24.748 Y29.774 E47.96724
G1 X24.883 Y29.103 E47.99
G1 X25.175 Y28.008 E48.02769
G1 X25.416 Y27.281 E48.05317
G1 X25.552 Y26.904 E48.0665
G1 X25.912 Y26.026 E48.09806
G1 X26.276 Y25.244 E48.12675
G1 X26.547 Y24.697 E48.14705
G1 X27.089 Y23.752 E48.18329
G1 X27.485 Y23.148 E48.20731
G1 X27.767 Y22.741 E48.22378
G1 X28.341 Y21.986 E48.25532
G0 F6000 X28.648 Y22.242
G1 F1200 X29.192 Y21.591 E48.28354
G1 X29.591 Y21.137 E48.30364
G1 X30.341 Y20.383 E48.33901
G1 X30.903 Y19.88 E48.3641
G1 X31.343 Y19.507 E48.38328
G1 X32.036 Y18.97 E48.41244
G1 X32.603 Y18.578 E48.43537
G1 X33.21 Y18.184 E48.45944
G1 X34.064 Y17.687 E48.4923
G1 X34.677 Y17.376 E48.51517
G1 X35.252 Y17.103 E48.53634
G1 X36.065 Y16.759 E48.5657
G1 X36.796 Y16.496 E48.59154
G1 X37.396 Y16.301 E48.61252
G1 X38.355 Y16.041 E48.64557
G1 X39.112 Y15.881 E48.6713
G1 X39.701 Y15.774 E48.69121
G1 X40.618 Y15.65 E48.72199
G1 X41.201 Y15.598 E48.74146
G1 X41.893 Y15.56 E48.76451
G1 X43.474 Y15.529 E48.8171
G1 X46.081 Y15.525 E48.90381
G1 X53.958 Y15.54 E49.1658
G1 X170.57 Y15.535 E53.04433
G1 X170.879 Y15.526 E53.05462
G1 X171.659 Y15.533 E53.08056
G1 X176.536 Y15.53 E53.24277
G1 X178.094 Y15.559 E53.2946
G1 X178.821 Y15.6 E53.31882
G1 X179.279 Y15.642 E53.33411
G1 X180.098 Y15.75 E53.36159
G1 X180.896 Y15.889 E53.38853
G1 X181.54 Y16.018 E53.41038
G1 X182.718 Y16.339 E53.45098
G1 X183.508 Y16.606 E53.47872
G1 X184.548 Y17.023 E53.51599
G1 X185.351 Y17.397 E53.54545
G1 X185.882 Y17.66 E53.56516
G1 X186.691 Y18.12 E53.59611
G1 X187.384 Y18.569 E53.62358
G1 X187.775 Y18.84 E53.6394
G1 X188.503 Y19.394 E53.66983
G1 X189.14 Y19.926 E53.69743
G1 X189.603 Y20.332 E53.71791
G1 X190.486 Y21.225 E53.75968
G1 X191.057 Y21.878 E53.78853
G1 X191.733 Y22.74 E53.82497
G1 X192.21 Y23.421 E53.85262
G1 X192.549 Y23.931 E53.87299
G1 X193.04 Y24.772 E53.90538
G1 X193.408 Y25.497 E53.93242
G1 X193.6 Y25.905 E53.94742
G1 X193.945 Y26.729 E53.97713
G1 X194.246 Y27.548 E54.00615
G1 X194.459 Y28.184 E54.02846
G1 X194.714 Y29.124 E54.06085
G1 X194.862 Y29.831 E54.08488
G1 X194.974 Y30.447 E54.1057
G1 X195.1 Y31.38 E54.13702
G1 X195.163 Y32.098 E54.16099
G1 X195.198 Y32.71 E54.18138
G1 X195.219 Y33.62 E54.21165
G1 X195.209 Y43.224 E54.53108
G1 X195.217 Y101.521 E56.47005
G1 X195.191 Y102.832 E56.51366
G1 X195.15 Y103.563 E56.53801
G1 X195.107 Y104.031 E56.55364
